X:1055
T:Ahint da Daeks o' Voe
R:reel
O:Shetland
Z:id:hn-reel-1055
M:C|
L:1/8
K:Dmix
ABAF D2AB | c2cA BGBG | ABAF D3g |1 fage d3B :|2 fage d3e ||
|: fdge ^cdeg | fdge fdge | fdge ^cdeg |1 fage d3e :|2 fage d4 ||

